X:2
T:Salve Regina
T:per soprano con accomp. di quartetto d'archi
C:G.B. Pergolesi
M:C
L:1/8
%%header "Salve Regina		$P / 16"
%%newpage 1
%%staves {1 2 3 4}
K:Cm
V:1 dyn=down name="No 1"
Q:"Largo"
!p!c6=B2|e4(d3/e//f// e)d|(e/d/c3)_d4-|
V:2 dyn=down
z4d4-'|d2c4=B2|zgecz4|
V:3
zCEC FDGG,|C2zG,A,2G,2-|G,4z4|
V:4
z8|zC,E,C, F,D,G,G,,|C,4-C,B,G,F,|
V:1
d_d'c'ba4-|aagfe4-|edfag4-|gfac' (=b3/c'//d'// c')c|
V:2
g4-gf=dc|=B2d2-dceg|f4-f!cresc!ec'b|a4-ag-gf|
V:3 dyn=up
z2C4F2-|F2=B,2C4|D4E4|F4GDEA,|
V:4 dyn=up
=E,4F,4|G,8-|G,8-|G,4-G,F,E,F,|
%%staves s | {1 2 3 4}
V:s dyn=up
z8|z8|z8"^SOPRANO"|z4!p!c4-|
w:Sal-
V:1 dyn=up
e2(d=e)f2Hz2|!atempo!f4^f4|(g=b) (c'/g/a/f/)e2d2|cGE2z4|
V:2
!f!c2!rall!=B2c2x2|!p!!<(!z4!<)!!f!x4|=Bdgcc2!dim!B2|c2x2!p!c4-|
V:3
G,4F,2Hz2|x4E4|G,2ECG,4-|G,2z2zCEC|
V:4
G,2G,,2A,,2x2|[A,,A,]!dolce![A,,A,][A,,A,][A,,A,] A,A,A,A,|G,F,E,F,G,2G,,2|C,2x2z4|
V:s
c2=B2(!<(!e4!<)!|d3/e//f//) e !>(!d (e/d/)c3!>)!|_d6c B|
w:-ve, sal ---ve Re-gi -na, ma-ter mi-
V:1
d6c2-|[Ac]2[G-=B]2[Ge]/d/c2c|_d4-d_d'c'b|
V:2
c2=B2!<(!e4!<)!|(d3/e//f// e)d !>(!zge!>)!c!<(!|z4!<)!g4-|
V:3
FDGG,C2z[I:staff 2]G|[I:staff 3]x2!invisible!G,2-G,4|z4z2C2-|
V:4
z4zC,E,C,|F,D,G,G,,C,4-|C,B,G,F,=E,4|
V:s
(!<(!Af) (!<)!gf/=e/) !>(!f/ c/ c!>)!z2|G4F2z2!mf!|f2B a a gz2|!p!F4E2z2|
w:se -ri --cor-di-ae, sal-ve vi-ta, dul-ce-do, sal-ve
V:1
_a2g2(a/g/f)f2|g4x4|z2(a2-ag)z2|(f4e2)x2|
V:2
g(f2!>(!=e) f!>)!f!p!f2-|f2=e2!<(!f2z2!<)!|!mf!f4!>(!B2e2-!>)!|(!p!e2d2)z!f!bge|
V:3
CF_DC [I:staff 2]zFAF|BGc[I:staff 3]CF2z2|z4[I:staff 2]zEGE|AFB[I:staff 3]B,E2z2|
V:4
F,_D,B,,C,F,2z2|z4zA,F,E,|(D,C,D,)B,,E,2x2|z4E,4-|
% (11)
V:s
!mf!f3f (e/d/) ez2|!<(!d2!<)!a c (!>(!=B/=A/) !>)!GHz2|!p!G6^F2|
w:et spes no -stra, spes no-stra, sal -ve. Sal-ve
V:1
f4e4|ddddd2Hz2|z4=a4|
V:2
z2(d3c/=B/) cc|!<(![Ac][Ac][Ac][Ac]!<)![G=B]2x2|!p!!<(!g6^f2!<)!|
V:3
z4zGEC|x8|x8|
V:4
E,D,B,,G,,C,4|[F,,F,][F,,F,][F,,F,][F,,F,][G,,G,]2Hz2|zG,,_B,,G,, C,=A,,D,D,,|
V:s
z!>(!e d c (B2!>)!=A2)|G2z2z4|z8|G6^F2|
w:spes no-stra, sal -ve. Sal-ve,
V:1
zggg (g2^f2)|g2x2=e4|=A=a dgg2^f2|z4=a4-|
V:2
!fp!GedcB2=A2|!f!Bged^c4|d^f (g/d/)(e/c/)B2A2|!p!g6^f2|
V:3
G,3E,D,4-|D,2z2z4|(D,3C,/E,/)D,4|zG,B,G, C=A,DD,|
V:4
E,C,B,,C,D,2D,,2|G,,4-G,,B,,=A,,G,,|^F,,C,B,,C,D,2D,,2|z8|
V:s
(!<(!B4!<)!=A3/B//c//) !>(!B A|(B/!>)!=A/) Gz2(!<(!_A4-|A!<)!!>(!_a) g f =e3!>)!e|(!<(!f8!<)!|
w:sal ---ve Re-gi -na, ma --ter mi-se-ri-cor-
V:1
a2g4^f2|zd'bg_a4-|aagf=e4|f8|
V:2
!<(!b4(!<)!=a3/b//c'// !>(!b)a|b/!>)!=a/g3!<(!z4!<)!|!>(!d4!>)!G4|Fe_dc!cresc!d2=A2|
V:3
G,2zG,E,2D,2-|D,2z2z4|z4_B,4|C4F,4|
V:4
zG,,B,,G,, C,=A,,D,D,,|G,,4-G,,G,D,C,|=B,,4z_D,C,_B,,|A,,4(B,,_D,)(C,E,)|
V:s
!>(!f3)f!>)!f2z2|!p!B2_G2F4|F2z2!<(!=e2e !<)!e|(!>(!f/=e/)!>)!f3!<(!=B3!<)!B|
w:-di-ae, sal-ve, sal-ve vi-ta, dul-ce -do et spes
V:1
f8-|f2e2(_d2c2)|_db_gf=e4|f f3=B4|
V:2
(B_d)(ce)!>(!d2=A2!>)!|B2!p!B4=A2|\
[V:2 stem=down]!f!!>(!B4!>)!!p!z4|f!f!!>(!f_d!>)!c!p!!>(!x4!>)!|[V:2 stem=auto]
V:3
F,8-|F,2_G,2F,4-|F,2z2[I:staff 2]G4|F2z2=D4[I:staff 3]|
V:4
_D,2=A,,2(B,,D,)(C,E,)|_D,2E,2F,2F,,2|B,,4-B,,_D,C,B,,|A,,4-A,,A,G,F,|
V:s
(!>(!c/=B/)!>)!c3(!<(!f4|e4!<)!da2)c|(!>(!=B/=A/) !>)!Gz2(!p!e/d/) ez2|(f/=e/) f zd (!cresc!g/f/) g ze|
w:no -stra, sal ---ve, sal -ve, ma -ter, vi -ta dul-ce -do Re-
V:1
zgecz2d'2-|d'2c'4c'2|{/c'}=b2d2dceg|f4-fegb|
V:2
!f!!>(!c3z!>)!!p!f4|e4!cresc!d4-|!>(!dG=B!>)!d!p!e4-|edfa!cresc!g4-|
V:3
E2z2z4|[I:staff 2]zGECA3C|[I:staff 3]G,3=B,C4|D4E4|
V:4
E,4-E,D,=B,,G,,|C,4F,2F,2|[G,,G,-]8|G,8-|
% (12)
V:s
(a/g/) az2!p!=B3B|(c/=B/) cz2!<(!G4!<)!|F2Hz2!mf!f4|!cresc!^f4!f!g Gz2|
w:gi -na, et spes no -stra, sal-ve; et spes no-stra,
V:1
a4d4|e4(d3=e)|{/=e}f2Hz2f4|^f4g=b (c'/g/a/=f/)|
V:2
gfac'!p!=b4|c'2!rall!c2!<(!c2[G=B]2!<)!|[Fc]2x2!p!z4|!cresc![ce]4!f![G=B][dg][eg]c|
V:3
[I:staff 2]F4G4-|G2G4x2|x8|x8|
V:4
G,4-G,[A,,A,][G,,G,][F,,F,]|[E,,E,][G,,G,][E,,E,][C,,C,][G,,,G,,]4|[A,,,A,,]2Hz2A,,!atempo!A,,A,,A,,|A,,A,,A,,A,, G,,F,,E,,F,,|
V:s
!>(!G8!>)!|G4z4|z8|z8||[K:Gm]
w:sal-ve.
V:1
(e4d4)|c(c'ag)[e^f]4|g=b (c'/g/a/f/)e2d2|c4z4||[K:Gm]
V:2
!>(!c4=B4!>)!|!f!x2z2=A4|ddgc!>(!c2=B2!>)!|x8||[K:Gm]
V:3
G8-|G2[I:staff 3]x6|xDECG,4|G,4x4||[K:Gm]
V:4
G,,8|[C,,C,]4-[C,,C,][E,,E,][D,,D,][C,,C,]|[=B,,,=B,,]F,E,F,G,2G,,2|C,4z4||[K:Gm]
T:
K:Gm
Q:"Andante"
V:s
!p!G|d4d4|!<(!d8-!<)!|!>(!d8!>)!|
w:Ad te cla-ma -
V:1 name="No 2" dyn=down
z|d8-|d8-|d8-|
V:2
x|B4[Ac]4|B4[Ac]4|B4[Ac]4|
V:3 dyn=down
x|[I:staff 2]!p!z!<(!dGBx!<)!x3|z(dGB)x4|z(dGB)!>(!x4!>)!|
V:4
z|[G,,G,]4-[G,,G,](A,D,^F,)|[G,,G,]4-[G,,G,](A,D,^F,)|[G,,G,]4-[G,,G,](A,D,^F,)|
V:s
d4z2!mf!zG|g4g4|!<(!g8-!<)!|!>(!g8!>)!|
w:mus, ad te cla-ma -
V:1
[Bd]2z2g4-|g8-|g8-|g8-|
V:2
x8|e4[df]4|e4[df]4|e4[df]4|
V:3
!<(!z(GBd)!<)!!mf!=B4|z(gce)x4|z(!<(!gce)x!<)!x3|!>(!z(gce)!>)!x4|
V:4
[G,,G,]4-[G,,G,](D,=B,,G,,)|[C,C]4-[C,C](DG,=B,)|[C,C]4-[C,C](DG,=B,)|[C,C]4-[C,C](DG,=B,)|
V:s
g4z2!f!zf|f4f4|!<(!f8-!<)!|f6f2|
w:mus, cla-ma-mus e -xu-
V:1
[eg]2z2z4|f8-|f8-|f8|
V:2
x8|d4[ce]4|d4[ce]4|d4[ce]4|
V:3
!<(!z(gec)!<)!!f!A4|z(fBd)x4|z(!<(!fBd)x!<)!x3|!>(!z(fBd)!>)!x4|
V:4
[C,C]4-[C,C]C,A,,F,,|[B,,B,]4-[B,,B,](CF,A,)|[B,,B,]4-[B,,B,](CF,A,)|[B,,B,]4-[B,,B,](CF,A,)|
% (13)
V:s
f2z2g3f|f4!dim!e3e|d4c3(d/e/)|(!>(!d2c2)!>)!B2z2|
w:les, e-xu-les, e-xu-les fi-lii* E -vae.
V:1
[Bf]6[ce-]2|e2d4c2-|c2B4B2|B2A2zf3-|
V:2
d2x6|x4[F-e]4|F2x2(c3d/e/)|(!>(!d2!>)!!f!c2)[DB]2x2|
V:3
z(bdf)g4|z(fBd)!dim!x4|z(fBd) zGG2|F4xfBd|
V:4
[B,,B,]4z(EA,C)|[D,D]4z(CF,A,)|[B,,B,]4[E,,E,]4|[F,,F,]4[B,,B,]4-|
V:s
z8|z8|z2!p!zAd4|d4!<(!d4-!<)!|
w:ad te cla-ma-
V:1
f8-|f2(a3/b//c'//)[fb]2z2|x4d4-|d8|
V:2
[ce]4[Bd]2x2|[ce]2[ef]2d2x2|c4B4|[Ac]4B2x2|
V:3
x4z(fBd)|x4z(dBd)|[I:staff 3]z2D2[I:staff 2]z(dGB)|!<(!x4z(!<)!dGB)|
V:4
[B,,B,](CF,A,)[B,,B,]4-|[B,,B,](CF,A,)[B,,B,]4-|[B,,B,]A,D,^F,[G,,G,]4-|[G,,G,](A,D,^F,)[G,,G,]4-|
V:s
!>(!d4!>)!d2z2|z2f2{f2}e4|z2!cresc!g2{g2}^f4|z2!p!c2(_B/A/G3)|
w:-mus, ad te ad te cla-ma -mus,
V:1
d8|[fd']4e4|(c'4d')(dfa)|c'4z(d'gb)|
V:2
[Ac]4B2x2|(=B3d) c(ceg)|(e3g) ^fdfa|z(ad!<(!^f)g4-!<)!|
V:3
x4z(GBd)|x8|[I:staff 3][V:3 dyn=up]C4A,4-|(A,4 B,4)|
V:4
[G,,G,](!>(!A,D,^F,)!>)![G,,G,]4-|[G,,G,](DG,=B,)C4|C(!cresc!G,C,E,)!p!D,4|D,8|
V:s
z2!f!c2(B/A/G3)|z2!p!c2(B/A/G3)|!f!e3ed4|!dim!c3cB4|
w:cla-ma -mus, cla-ma -mus, e-xu-les e-xu-les
V:1
c'4z(d'gb)|c'4z(d'gb)|e4z(d'gb)|c'4z(d'gb)|
V:2
g(!f!ad^f)!>(!g4-!>)!|g(!p!ad^f)!<(!g2(d2!<)!|!f!d'2)c'2d2(B2|!dim!b2)a4g2-|
V:3
(A,4B,4)|(A,4B,4)|x8|x8|
V:4
D,8|D,4G,,4|z(CF,A,)[B,,B,]4|z(A,D,^F,)[G,,G,]4|
V:s
A3(!>(!B/c/)(B2!>)!A2)|G2z2!f!e3e|d4!dim!c3c|B4A3(!>(!B/c/)!>)!|
w:fi-lii* E -vae, e-xu-les, e-xu-les fi-lii*
V:1
(a3b/!>(!c'/)(b2a2)!>)!|!<(!g(d'gb)!<)!!f!e4|x(d'gb)!dim!c'4|z(d'gb)(a3b/c'/)|
V:2
g2g4^f2|g2d4c'2-|c'2b4a2-|[Ba]2g4g2-|
V:3
z(GCE)D4|B,2z2[I:staff 2]x4|d8|[I:staff 3]x4z(GCE)|
V:4
C,4D,2[D,,D,]2|G,,4z(CF,A,)|[B,,B,]4z(A,D,^F,)|[G,,G,]4C,4|
% (14)
V:s
(!>(!B2!>)!A2)G2z2|z8|z8|z8||[K:Cm]
w:E -vae.
V:1
(b2a2)g d3-|d4-d d'3|(d'3c'/b/)a2g2|[da]4[dg]2z2||[K:Cm]
V:2 stem=down
g2^f2!f!g(dGB)|[Ac]4B4|!rall!e4e(d'bg)|!>(!(g2^f2)B2!>)!x2||[K:Cm]
V:3
D4B,4|[I:staff 2]x4x(d'bg)|[I:staff 3]C4-C(A,B,E)|x8||[K:Cm]
V:4
D,2D,2G,4-|G,(A,D,^F,)[G,,G,]4|G,(C,E,G,)^F,2G,2|[D,D]2[D,,D,]2[G,,G,]2z2||[K:Cm]
T:
K:Cm
V:s
Q:"Largo"
!p!d|{/c}(=B3a)g3g|{f}f2zfe2ze|_d2za=B2c2|
w:Ad te* su-spi-ra ------mus
V:1 name="No 3"
z|z!p![=Bd][Bd]2z[ce][ce]2|z[df][df]2z[ce]c2|z!pp![A_d][Ad]2z[=B=d][c-e]2|
V:2 stem=auto
x|x8|x8|x8|
V:3
x|x8|x8|x4x=DG,2|
V:4
z|z[F,A,][F,A,]2z[E,G,][E,G,]2|z[=B,,G,][B,,G,]2z[C,G,][E,G,]2|z[F,A,][F,A,]2zG,E,C,|
V:s
!sf!z!>(!a (g=B){c}!>)!c2z2|!sf!z!>(!_g (f=A){B}!>)!B2z!p!_d|(dc) c B {A}!<(!A3!<)!f|
w:ge-men -tes et flen -tes in hac* la-cri-ma-rum
V:1
[cd](!sf![fa]!>(![eg]).[=Bd]!>)!x4|zB2xF2z2|=g4-(g/=e/f/e/f2)|
V:2
x4[c-e]4|!sf![c_d]([e_g]!>(![df]).[=Ac]!>)![Bd-]4|(!p!dc)(cB)!<(![Ac]4!<)!|
V:3
A,2z2z4|x8|x8|
V:4
F,,2G,,2zC,A,,F,,|B,,E, F,F,, z_D,C,B,,|=E,,4z!tenuto!F,,!tenuto!A,,!tenuto!B,,|
V:s
{A}!>(!A4!>)!G2c c|(c2-c/=B/c/B/!<(!c2-c/B/c/B/!<)!|c2-c/B/c/B/ c!>(!f e//_d3//) (c//_B3//)!>)!|
w:val-le; la-cri-ma ------------------rum*
V:1
!>(![Af][Af][Af][Af]!>)![G=e]2z2|(c'2-c'/=b/c'/b/c'2-c'/b/c'/b/|c'2-c'/=b/c'/b/ c')f!>(!ff!>)!|
V:2
x8|!p!z/_d/c/!<(!d/c2-c/d/c/d/!<)!c2-|c/_d/c/d/c2-cf (e//d3//)(c//_B3//)|
V:3
x8|(A,2G,2)(A,2G,2)|(A,2G,2)x4|
V:4
[C,,C,][C,,C,][=B,,,=B,,][B,,,B,,][C,,C,]2z2|F,F,=E,C, F,F,E,C,|F,F,=E,C, [F,A,][A,C] [B,_D][B,D]|
V:s
(A2G2)F2z2|z8|!mf!zcf3d=B2|
w:val -le. Ad te su-spi-
V:1
[Af]2[Gc=e]2(f/e/f/e/f2-|f2)fff2=e2|f2z[cf][=Bf]2z[df]|
V:2
x4!f![Ac]2B2|c(f/_e//_d// c/B/A/G/) (A3/F//G//)TG2{FG}|F2!p!x6|
V:3
x6z/(=E,/F,/E,/)|x8|x8|
V:4
[C,C]2[C,,C,]2F,,2F,,2|[A,,F,][G,B,][A,C][B,_D][C,C]2[C,,C,]2|[F,,F,]2z[A,,A,][G,,G,]2z[=B,,=B,]|
% (15)
V:s
z(g/e/{d}c2)z(!<(!fe!<)!d)|{d}c2z!>(!e e !>)!d z!p!G|('G2-!<(!G/^F/G/F/G2-G/F/G/!<)!F/|
w:ra -----mus ge-men-tes, ge-men ---------
V:1
[Ge]2!<(!z[ce] [Ad]([df][ce])!<)!.[=Bd]|[ce][ce]2!>(![ce] ([ce]!>)![=Bd])z2|z/(a/g/a/g2-g/a/g/a/g2-|
V:2
x8|x8|!pp!G2-!<(!G/^F/G/F/G2-G/F/G/F/!<)!|
V:3
x8|x8|(E2D2)(E2D2)|
V:4
[C,C]2zE,F,2G,2|C2^F,2G,2z2|CC=B,G, CCB,G,|
V:s
G2-G/^F/G/F/) !f!G a (g=B)|c2!mf!zc(c2-c/=B/!<(!c/B/|c2-c/=B/!<)!c/B/c2-c/B/c/B/)|
w:-----tes, et flen -tes, ge-men --------------
V:1
g/a/g/a/)g2-g(!f![=fa][eg])[=Bd]|c2z2(!mf!c'2!<(!c'/=b/c'/b/|c'2-!<)!c'/=b/c'/b/c'2-c'/b/c'/b/|
V:2
G2-G/^F/G/F/x4|x4z/(_d/c/d/c2-|c/_d/c/d/c2-c/d/c/d/c2-)|
V:3
(E2D2)x4|E,2x2(A,2G,2)|(A,2G,2)(A,2G,2)|
V:4
CC=B,G, [CE][F,C]G,G,,|C,2z2zF,=E,C,|F,F,=E,C, F,F,E,C,|
V:s
!>(!c _d (c!>)!=E) F !f!c(f2-|f_e) _d cd4-|!>(!dc (cB)!<(!!>)!A4-|
w:tes et flen -tes in hac__ la-cri-ma --rum* val-
V:1
!>(!c')([b_d'][ac'])!>)!.[=eg]f2f2-|f(_e_dc)d4-|(!>(!_dc) (cB) !>)!A2!sf!a2-|
V:2
cx3f!f!cz2|c'4f4|g4x2f2|
V:3
x8|x8|x8|
V:4
[F,A,]([B,,B,][C,C])[C,,C,][F,,F,]3[G,,G,]|[A,,A,]2[A,,A,]2z[_D,_D][C,C][B,,B,]|[=E,,=E,]4-[E,,E,][A,,A,][G,,G,][F,,F,]|
V:s
Aagf!>(!e4!>)!|d2!p!zf{f}e2z2|!sf!z(a!>(!g) =B (c/B/) !>)!cz2|
w:-----le. Ad te su -spi-ra -mus
V:1
a(agf) e!>(!eee|!>)![=Bd][df]!p!z[df] z[ce]z[ec']|!>(!z([fa][eg])!>)!.[=Bd] z[ce]z[ec']|
V:2
=d4-dccc|x8|x8|
V:3
x8|x8|x8|
V:4
[=B,,=B,]4-[B,,B,]C^F,F,|G,z=B,z CzE,z|F,zG,z A,z[E,,E,]z|
V:s
!sf!z!>(!a (g=B){d}!>)!c2z2|!sf!z!>(!a (g=B)!>)!c2Hz!p!c|(e4=e4)|
w:ge-men -tes et flen -tes in hac_
V:1
!>(!z([fa][eg])!>)!.[=Bd] z[ce]z[ec']|!>(!z([fa][eg])!>)!.[=Bd]c2Hz2|(!p!!atempo!e4=e4)|
V:2
x8|x8|c8-|
V:3
x8|x8|x8|
V:4
[F,,F,]z[G,,G,]z [A,,A,]z[E,,E,]z|[F,,F,]!rall!z[G,,G,]z [A,,A,]2Hzz|[A,,A,][A,,A,][A,,A,][A,,A,] [A,,A,][A,,A,][A,,A,][A,,A,]|
% (16)
V:s
!cresc!f4^f4!f!|g8-|g=Bc !>(!f (e2d2)|
w:la-cir-ma ---rum val -
V:1
f4^f4)|(g/^f/g/f/g2-g/f/g/f/g2-|g)=b (c'/a/g/f/)([ce]2[=Bd]2)|
V:2
!cresc!c8|!f!=B2-B/c/B/c/c2-c/B/c/B/|[ce]f e[Ac]!>(!G4-!>)!|
V:3
x8|x8|x4(G,3F,)|
V:4
[A,,A,][A,,A,][A,,A,][A,,A,] [A,,A,][A,,A,][A,,A,][A,,A,]|[G,,G,][G,,G,][F,,F,][F,,F,] [E,,E,][E,,E,][D,,D,][D,,D,]|[C,,C,][D,,D,][E,,E,][F,,F,]G,,4|
V:s
!>)!c2z2z4|z8|z8|z8|][K:Dm][M:2/4]
w:le.
V:1
cgc'2-c'(bag)|a4-(ag)(gf)|ec' (b//a3//)(g//f3//) (e3/d/)Td2|c8|][K:Dm][M:2/4]
V:2
!f!G2z2g4|c4d4|Gg ccc2=B2|x8|][K:Dm][M:2/4]
V:3
E,3xx4|x8|x8|x8|][K:Dm][M:2/4]
V:4
C,3[D,,D,][E,,E,]2[=E,,=E,]2|z[A,,A,][G,,G,][F,,F,][=B,,,=B,,]4|[C,,C,][E,,E,][F,,F,][F,,F,][G,,G,]2[G,,,G,,]2|[C,,C,]8|][K:Dm][M:2/4]
T:
K:Dm
V:s
Q:"Andante"
!p!d4|e4|f3!<(!d|e (f/!<)!g/) !>(!f e|(f/e/)!>)!d3|z4|
w:E-ja er-go ad-vo -ca-ta no -stra,
V:1 name="No 4"
d4|e4|f3d|(ef/g/ fe)|fdd'2-|d'2^c'2|
V:2
!p!z4|z4|zA2d-|!<(!d2!>(!!<)!^c2|!>)!d!f!d2d|ef/g/ fe|
V:3
z2(D2-|D2^C2|D2)z2|z4|z2F2|G2A2|
V:4
z4|A,4|D,2F,2|G,2A,2|D,2z2|z4|
V:s
z2d f|e2e !<(!e|d (e/!<)!f/) !>(!e d|!>)!c3/ =B/ A !mf!e|(!<(!f4-!<)!|
w:il-les tu-os mi-se-ri -cor-des e-cu-los ad nos
V:1
d'3f|z2(!<(!c'2-|!<)!c'2-!>(!c'=b)|!>)!e2!mf!e2-|!<(!e2d2!<)!|
V:2
fe!p!z2|e4|(de/f/ ed)|c4|f4-|
V:3
D2D2-|Dx3|x4|x4|x4|
V:4
z2D,2-|D,[C,C][=B,,=B,][A,,A,]|[=B,,=B,]2[^G,,^G,]2|[A,,A,]4|z[D,D][=B,,=B,][G,,G,]|
V:s
!>(!fe/d/ !>)!e) c|!<(!d4-!<)!|d!>(!c/=B/ cA|!>)!_B4-|BAd2-|d^c/d/!cresc!e2-|
w:____ cou-ver -------------
V:1
g4|f4|e4|d4|c2zA|g4|
V:2
(!>(!fe/d/ !>)!ec)|!<(!d4-!<)!|(!>(!dc/=B/ c!>)!A)|_B4-|BAd2-|(d^c/d/e2-)|
V:3
x4|x4|x4|x4|x4|x4|
V:4
[C,C]4-|[C,C](=B,/A,/ B,^G,)|[A,,A,]4-|[A,,A,](G,/=F,/ G,E,)|[F,,F,]3[F,,F,]|[E,,E,]3!cresc!^C|
% (17)
V:s
edf2-|fe/d/ =c=B|!>(!c4)!>)!|=B2z2|!f!zf e d|
w:---------te, ad nos con-
V:1
f4|=B2(=b2-|ba/^g/ aa)|^g2z2|z2(a2-|
V:2
edf2-|fe/d/ =cB|c4|=B2x2|zfed|
V:3
x4|x4|!>(!x4!>)!|x4|x4|
V:4
D3[A,,A,]|[^G,,^G,]4|[A,,A,]2[^D,,^D,]2|[E,,E,]!f!ECA,|[=D,=D]2!mf![C,C][D,D]|
V:s
(!>(!c2=B2)|!>)!A2z2|z4|z4|z4|
w:ver -te.
V:1
a2^g2|a)c(f2-|f^d)(e2-|e=B)(e2-|e^c)(d2-|
V:2
c2=B2|c2!f!zc|B2zB|E2zB|A2zA|
V:3
!>(!x4!>)!|x4|x4|x4|x4|
V:4
[E,E]2[E,,E,]2|[A,,A,]4|[^G,,^G,]4|[=G,,=G,]4|[^F,,^F,]4|
V:s
z4|z4|z4|!p!A4|=B4|c3A|
w:E-ja er-go
V:1
dA) za|^g2(a2-|a2^g2)|a4|=b4|c'c a2-|
V:2
D2(d2-|d=B cB/A/)|=B4|!p!z2a2-|a2^g2|a2(!<(!aA|
V:3
z2zA,|E2x2|E4|A,2z2|x4|x4|
V:4
=F,4|E,2z2|z4|z4|[E,,E,]4|[A,,,A,,]2[C,,C,]2|
V:s
!<(!=B (c/d/) !<)!c B!>(!|(c/=B/) !>)!Az2|z4!mf!|d4|e4|
w:ad-vo -ca-ta no -stra, il-los
V:1
a2^g2|a2z(f|ef/g/ fe)|fd(d'2-|d'2^c'2)|
V:2
=B!<)!c/!>(!d/ cB)|!>)!cA!f!d2-|d2^c2|d!p!d2d|e4|
V:3
x4|x2D2|G2A2|D2z2|x4|
V:4
[D,,D,]2[E,,E,]2|[A,,,A,,]2z2|z4|z4|[A,,A,]4|
V:s
f2!<(!d d|e (!<)!f/g/) f e|f3/ !>(!e/ d f|!>)!e2z2|z!f!e a e|
w:tu-os mi-se-ri -cor-des o-cu-los ad nos, ad nos con-
V:1
d'3d'|(d'2^c'2)|d'2(b2-|b^g)(a2-|ae)(a2-|
V:2
fa!<(!df|(e!<)!f/g/ fe)|!>(!fb zf!>)!|e2!f!z2|z2ze|
V:3
x4|x4|D,2z2|z2zE|A,2z2|
V:4
[D,,D,]2[F,,F,]2|[G,,G,]2[A,,A,]2|D,,4|^C,4|=C,4|
% (18)
V:s
(d^f){g}g2|z!p!d g d|(!<(!ce!<)!=f2-|f!>(!e/d/ c_B!>)!|AF)!<(!f2-!<)!|
w:ver -te, ad nos con-ver ---------te,
V:1
a^f)(g2-|gd)(g2-|ge)(=f2-|fe/d/e2|f2)zf|
V:2
d2!p!z2|z2z!<(!d|c2!<)!zc|!>(!d2c!>)!_B|AF!<(!f2-!<)!|
V:3
z2zD|G,2z2|z2zA,|_B,2C2|C2z2|
V:4
=B,,4|_B,,4|A,,4|G,4|F,2A,2|
V:s
f d !>(!e2|!>)!f2z!p!c|(de/f/ e) !<(!d|(ec)!<)!g2-|g e !>(!^f2|
w:_ con-ver-te; ad nos___ con-ver -te,_ con-ver-
V:1
(ga/_b/ ag)|a!p!fc'2-|c'a=b2|c'2zg|(a_b/c'/ ba)|
V:2
f2!>(!e2|!>)!f2z(c|de/f/ e!<(!d)|ce!<)!g2-|g2!>(!^f2|
V:3
z2C2|C2z2|z2G2-|G2z2|z2D2|
V:4
B,2C2|F,2E,2|F,2G,2|C2_B,2|C2D2|
V:s
!>(!g2(!>)!!f!g2-|g=f) (ed)|a2A2|!p!!<(!d4|!<)!e4|!>(!f2!>)!f d|
w:te; e --ja* er-go il-les tu-os mi-
V:1
bd(g2-|g=fed)|a2A2|d4|e4|fdd'2-|
V:2
g2!>)!!f!g^c|d3d|^c2z2|!p!z2d2-|d2^c2|dd2d|
V:3
D2z2|x4|x4|x4|A4|!>(!D2!>)!F2|
V:4
G,3[A,,A,]|([_B,,_B,]4|[A,,A,])[A,,A,][A,,A,][G,,G,]|[F,,F,]2z2|z4|z4|
V:s
!<(!e (f/g/) f !<)!e|f3/ !>(!e/ d d|!>)!^c4|=c4|!dim!=B4|
w:se-ri -cor-des o-cu-los, mi-se-ri-cor-
V:1
d'2^c'2|d'2zf|e2zE|A2ze|d2zD|
V:2
e4|f3d|^c4|=c4|=B4|
V:3
!<(!G2!<)!A2|D2!>(!z2!>)!|x4|x4|!dim!x4|
V:4
A,4|D,F,_B,2-|B,^G,A,2-|A,E,A,2-|A,^F,=G,2-|
V:s
_B4|A ^cd2-|d ^ce2-|e d(f2-|fe/f/ g) d|
w:des o-cu-los_ ad nos,_ ad nos____ con-
V:1
G2zd|^ceAf|e2e2-|e(df2-|fe/f/ gd)|
V:2
_B4|Acd2-|d!cresc!^c e^C|D3[Fd]|[G_B]4|
V:3
x4|A,4-|A,4-|A,4-|A,4|
V:4
G,D,G,2-|G,E,F,D,|A,,4-|A,,4-|A,,4|
% (19)
V:s
(^cA)d2|z!f!_B A g|(!>(!f2e2)|!>)!d2z2|z4|
w:ver -te, ad nos con-ver -te.
V:1
^cAd2|zbag|f2e2|d2zd'|(b4-|
V:2
A2z[DF]|!f!!rit!B2zd|!>(!d2[A^c]2!>)!|A!f!!atempo!d(a2-|ag/f/ g)e|
V:3
x4|x4|x4|D,4|D,2E,2|
V:4
[A,,A,]A,F,D,|G,2[F,A,][G,B,]|A,2[A,,,A,,]2|D,,2F,2|G,,G,E,C,|
%%staves {1 2 3 4}
V:1
ba/g/ a)f|g3e|fbad'|f2e2|[Ad]AD2|][M:3/4][K:Bb]
V:2
c2c2|BgB2|A[^ce]de|[Ad]2[A^c]2|x4|][M:3/4][K:Bb]
V:3
F,4|D2x2|x4|x4|x4|][M:3/4][K:Bb]
V:4
F,4-|F,E,/D,/ E,^C,|D,G,[F,A,][G,B,]|A,2[A,,,A,,]2|[D,,D,]2z2|][M:3/4][K:Bb]
T:
K:Bb
V:1 name="No 5"
Q:"Andante un poco mosso"
!f!F2|f6|e6|d6|c2d2e2|
V:2 stem=down
x2|zf2d2B|ze2c2A|zd2c2B|zA2B2c|
V:3
x2|[I:staff 1]F6-|F6|F6-|F6|
V:4
z2|B,,2D,2B,,2|C,2A,,2F,,2|B,,2C,2D,2|E,2F,2F,,2|
V:1
zf2e2d|c2d2e2|zf2e2d|ze2c2B|d2c2z2|
V:2
d2c2B2|zA2B2c|d2c2B2|G2E2D2|zB2A2x|
V:3
F6-|F6|F6|G6|F4-FE|
V:4
B,,2C,2D,2|E,2F,2F,,2|B,,2C,2D,2|E,2E,,2=E,,2|F,,2F,2A,,2|
V:1
f6-|f6|f6-|f6|f6|
V:2
zf2d2B|zA2c2e|zf2d2B|zA2c2e|zf2d2B|
V:3
D6|E6|D6|E6|D6|
V:4
B,,2D,2B,,2|C,2A,,2F,,2|B,,2D,2B,,2|C,2A,,2F,,2|B,,2B,2D,2|
%%staves s | {(1 2) (3 4)}
V:s
%[M:3/4][K:Bb]	% ???
z6|z6|z6|z2z2!mf!B2|(f6|
w:Et Je-
V:1
g2f2A2|B6|ze2d2c|BdFBD2|z(f2d2B)|
V:2
ze2d2c|zd2c2B|G2F2[EA]2|D2z2z2|!p!F6|
V:3
x6|x6|x6|x6|F,6|
V:4
[E,C]2F,2-[F,,F,]2|[G,,G,]2B,2[D,D]2|[E,C]2F,2-[F,,F,]2|[B,,,B,,]2z2z2|B,,2D,2B,,2|
% (20)
V:s
e6)|d6|(!<(!c2d2)e2!<)!|!>(!d2{c2}B4!>)!|(!p!c2d2)e2|!<(!d2{c2}B4!<)!|
w:-sum be -ne-di-ctum, be -ne-di-ctum
V:1
z(e2c2A)|z(d2c2B)|z(A2B2c)|z(f2e2d)|z(A2B2c)|z(f2e2d)|
V:2
F6|F6|F6|F6|F6|F6|
V:3
F,6|F,6-|F,2F,4|F,6-|F,2F,4|F,6|
V:4
C,2A,,2F,,2|B,,2C,2D,2|E,2F,2F,,2|B,,2C,2D,2|E,2F,2F,,2|B,,2C,2D,2|
V:s
(!>(!g2e2)d2!>)!|(!<(!c2!<)!g2)!>(!B2|B2!>)!A2z2|!p!c2B2A2|(!<(!d2=e2)f2!<)!|!>(!=e3dc2!>)!|
w:fru -ctum ven -tris tu-a no-bis post hoc* e-xi-li-um
V:1
z(d2c2B)|z(g2=e2d)|z(d2c2B)|A(a2g2f)|z(f2=e2d)|z(=e2=B2c)|
V:2
G6|G6|F6-|F6|F4_A2|G6|
V:3
x6|x6|x6|x6|B,2B,2=B,2|C6|
V:4
E,2E,2E,2|=E,2E,2E,2|F,2[F,,F,]2[G,,G,]2|[A,,A,]2[A,C]2[A,C]2|B,2B,,2=B,,2|C,2C,2C,2|
V:s
!p!c6|c6-|!cresc!c6-|c6|c4z2|!<(!d2(c2=e2)!<)!|
w:o-sten --de, o-sten -
V:1
z(c'2a2f)|z(=e2g2b)|z(c'2a2f)|z(=e2g2b)|z(c'2a2f)|z(b2a2g)|
V:2
!p!c6|c6|!cresc!c6|c6|!<(!c6!<)!|d2c2B2|
V:3
x6|B,6|x6|B,6|x6|x6|
V:4
F,2A,2F,2|G,2=E,2C,2|F,2A,2F,2|G,2=E,2C,2|F,2A,2F,2|B,2C2[C,,C,]2|
V:s
{f2}!f!f6|!>(!d2(c2=E2)!>)!|F2z2z2|z6|z6|z6|
w:de, o-sten -de.
V:1
z(a2g2f)|(d'2c'2=e2)|c'6|b6|a6|zb2a2g|
V:2
A4c2|z(b2a2g)|fc'2a2f|zb2g2=e|zc'2a2f|x6|
V:3
x6|x6|[I:staff 2]c6|c6|(c6|d2)c2B2|
V:4
[D,,D,]2[F,,F,]2[A,,A,]2|[B,,B,]2[C,C]2[C,,C,]2|[F,,F,]2[A,,A,]2[F,,F,]2|[G,,G,]2[=E,,=E,]2[C,,C,]2|[F,,F,]2[F,,F,]2[A,,A,]2|[B,,B,]2[C,C]2[C,,C,]2|
V:s
z2z2!mf!f2|{=B}=B4e2|f2{d}d4|(ed)c4|!<(!e6|!<)!d6|
w:Et Je-sum be-ne-di -ctum fru-ctum
V:1
zf2g2a|zf2d2e|zd2c2=B|ze2d2c|zc2B2A|zf2e2d|
V:2
A6|=B4G2|_A2G4|G6|F6|F6|
V:3
[I:staff 3]x6|!p!D4x2|x6|x6|x6|x6|
V:4
[F,,F,]2[F,C]2[F,D]2|G,2F,2E,2|F,2G,2G,,2|C,2C2_B,2|A,2G,2F,2|B,2C2D2|
% (21)
V:s
(g2!>(!e2)d2|!>)!d2c2z2!p!|f2d2c2!<(!|(B2!<)!f2)!>(!_A2|!>)!_A3/ G/G2z2|!mf!g2=e2!<(!d2|
w:ven -tris tu-i, no-bis post hoc* e-xi-li-um, no-bis post
V:1
ze2c2B|zb2a2g|zB2d2f|b2f2_a2-|a2g4-|g2=e2d2|
V:2
G6|d2c4|F6|zB2d2f|zB2_e2g|zB2c2g|
V:3
x6|F6|B,6|B,6|B,6|C6-|
V:4
E2E,2=E,2|F,2F,2_E,2|D,2D,2D,2|D,2D,2D,2|_E,2E,2E,2|=E,2E,2E,2|
V:s
(c2!<)!g2)B2!>(!|B3/ =A/!>)!A2z2!p!|f6|(f6-|f6-|!cresc!f6-|
w:hox* e-xi-li-um o-sten --
V:1
c2g2b2-|b2=a2z2|zf2d2B|zA2c2e|zf2_d2B|zA2c2e|
V:2
zG2=e2g|zc2f2!p!c|F6|F6|F6|!cresc!F6|
V:3
C6|C6|D,6|E,6|_D,6|E,6|
V:4
=E,2E,2E,2|F,2F,2A,,2|B,,2D,2B,,2|C,2A,,2F,,2|B,,2D,2B,,2|C,2A,,2F,,2|
V:s
f6|=e6|_e6)|d4z2!f!|g2e2!>(!c2|!>)!A3!<(!AB2!<)!|
w:---de, post hoc e-xi-li-um
V:1
zf2_d2B|ze2_d2B|zA2c2_e|zf2=d2B|zg2e2c|zf2!<(!A2B!<)!|
V:2
F6|B6|F6|F6|E6|F6|
V:3
_D,6|B,6|C6|x6|G,6|C4D2|
V:4
B,,2D,2B,,2|_G,,2G,,2G,,2|F,,2F,,2F,,2|B,,2=D,2!f!B,,2|E,2!>(!E,2E,2|!>)!E,2E,2D,2|
V:s
g2(!>(!f2A2)|{B}!>)!!<(!B6!<)!|!>(!g2(f2A2)!>)!|B4z2|z6|
w:o-ste -de, o-ste -de.
V:1
ze2d2c|zd2c2B|ze2d2c|f6|e6|
V:2
z2F4|z2F4|z2F2F2|zf2d2B|ze2c2A|
V:3
C2x4|B,2B,4|C2x4|[I:staff 2]F6|F6|
V:4
E,2!>(!F,2F,,2!>)!!<(!|G,,2B,2!<)!D,2|!>(!E,2F,2!>)!F,,2|!f![B,,,B,,]2[D,,D,]2[B,,,B,,]2|[C,,C,]2[A,,,A,,]2[F,,,F,,]2|
%%staves {(1 2) (3 4)}
V:1
df2e2d|g2f2A2|{/A}BB2d2B|ze2d2c|BdFBD2|][M:C][K:Cm]
V:2
F6|ze2d2c|B2F2F2|G2F2[EA]2|D4D2|][M:C][K:Cm]
V:3
x6|C2[I:staff 1]F4|[I:staff 2]B,6-|B,2x4|x6|][M:C][K:Cm]
V:4
[B,,,B,,]2[C,,C,]2[D,,D,]2|E,2F,2F,,2|G,,2B,,2[D,,D,]2|[E,,E,]2[F,,F,-]2[F,,F,]2|[B,,F,]6|][M:C][K:Cm]
% (22)
T:
K:Cm
M:C
%%staves s | {(1 2) (3 4)}
V:s
Q:"Largo"
z2z!mf!c c =B zd|d c zc!<(!_d4!<)!|!>(!c4!>)!!<(!=d2!<)!e2-|
w:O cle-mens, o pi-a o dul-cis vir-go
V:1 name="No 6"
z(gec)d4-|d(ce)e_d4|c4f2g2|
V:2
z2c2-c(=Bdf)|e2c2A2B2-|B2A2=d2e2-|
V:3
!mf!E4G4|G4x4|[I:staff 2]!<(!E4!<)!B4|
V:4 clef=bass
C4G,4|C4F,2G,2|A,6G,2|
V:s
e f!>(!{e}d2e2!>)!x!mf!e|e d z!p!d d c z!dim!c|(c/=B/) cz2(c/B/) cz2|
w:* Ma-ri-a O cle-mens, o pi-a, o dul -cis, cle -mens,
V:1
f4z(bge)|f4e2=e2|f(c'af)=e2g2-|
V:2
!>(![ce]2!>)![Bd]2[GB-e]4|[Be](!p!dGd-) d(cGB)|[F_A]4G(g!cresc!ec)|
V:3
[I:staff 3]x8|x2D2G4|x4C4-|
V:4
A,2B,2E,4|B,2=B,2C4|C4C,4|
V:s
(!cresc!c/=B/) c zf!<(!B2c2-|!<)!c !>(!f{e}d2c2!>)!z2!p!|(e/d/) cz2(!cresc!e/d/) cz2|
w:pi -a o vir-go* Ma-ri-a. Dul -cis, pi -a
V:1
g(fac')=b2c'2-|c'2=b2z(ebc')|z(e=bc') z(ebc')|
V:2
A2f2-f2e2|d4c4|c4c4|
V:3
C4G,4-|!>(!G,4!>)!!mf!E/E/E/!>(!E/ [CE]/[CE]/[CE]/[CE]/!>)!|!p![CE]/[CE]/[CE]/[CE]/ [CE]/[CE]/[CE]/[CE]/ !cresc![CE]/[CE]/[CE]/[CE]/ [CE]/[CE]/[CE]/[CE]/|
V:4
F,4G,4|G,,4C/C/C/C/(E,2|F,2G,2A,2G,2)|
V:s
!f!e2d c!>(!c2=B2)|!>)!c2z2z4|z8|z8|]
w:vir-go Ma-ri -a.
V:1
e4d4|c4-c(c'af)|([=Bd]2e2d4)|c2z2z4|]
V:2
!<(!c6!<)!=B2|!f!c(gec)A3[Ac]|!dim!x2c4B2|[EG]2x2x4|]
V:3
x8|x8|[I:staff 2]G8|x8|]
V:4
[^F,,^F,]4[G,,G,]4|[C,G,]4[=F,,=F,]4-|[F,,F,]([G,,G,][E,,E,][C,,C,])[G,,G,]4|[C,,C,]2z2z4|]
